flaticon/user-interface/browser-28.svg

<svg xmlns="http://www.w3.org/2000/svg" width="32" height="32" viewBox="0 0 24 24">
    <path d="M2.800781 1.199219C1.917969 1.199219 1.199219 1.917969 1.199219 2.800781 1.199219 3.683594 1.917969 4.398438 2.800781 4.398438 3.683594 4.398438 4.398438 3.683594 4.398438 2.800781 4.398438 1.917969 3.683594 1.199219 2.800781 1.199219zM2.800781 3.601562C2.359375 3.601562 2 3.242188 2 2.800781 2 2.359375 2.359375 2 2.800781 2 3.242188 2 3.601562 2.359375 3.601562 2.800781 3.601562 3.242188 3.242188 3.601562 2.800781 3.601562zM6.398438 1.199219C5.519531 1.199219 4.800781 1.917969 4.800781 2.800781 4.800781 3.683594 5.519531 4.398438 6.398438 4.398438 7.28125 4.398438 8 3.683594 8 2.800781 8 1.917969 7.28125 1.199219 6.398438 1.199219zM6.398438 3.601562C5.957031 3.601562 5.601562 3.242188 5.601562 2.800781 5.601562 2.359375 5.957031 2 6.398438 2 6.839844 2 7.199219 2.359375 7.199219 2.800781 7.199219 3.242188 6.839844 3.601562 6.398438 3.601562zM10 1.199219C9.117188 1.199219 8.398438 1.917969 8.398438 2.800781 8.398438 3.683594 9.117188 4.398438 10 4.398438 10.882812 4.398438 11.601562 3.683594 11.601562 2.800781 11.601562 1.917969 10.882812 1.199219 10 1.199219zM10 3.601562C9.558594 3.601562 9.199219 3.242188 9.199219 2.800781 9.199219 2.359375 9.558594 2 10 2 10.441406 2 10.800781 2.359375 10.800781 2.800781 10.800781 3.242188 10.441406 3.601562 10 3.601562zM10 3.601562"/>
    <path d="M 0 0 L 0 24 L 24 24 L 24 0 Z M 0.800781 0.800781 L 23.199219 0.800781 L 23.199219 4.800781 L 0.800781 4.800781 Z M 23.199219 23.199219 L 0.800781 23.199219 L 0.800781 5.601562 L 23.199219 5.601562 Z M 23.199219 23.199219"/>
    <path d="M16.398438 7.601562L6.398438 7.601562 6.398438 10.800781 16.398438 10.800781zM15.601562 10L7.199219 10 7.199219 8.398438 15.601562 8.398438zM16.398438 12L6.398438 12 6.398438 15.199219 16.398438 15.199219zM15.601562 14.398438L7.199219 14.398438 7.199219 12.800781 15.601562 12.800781zM21.199219 16.398438L6.398438 16.398438 6.398438 21.199219 21.199219 21.199219zM20.398438 20.398438L7.199219 20.398438 7.199219 17.199219 20.398438 17.199219zM2.800781 8.398438L4.800781 8.398438C5.019531 8.398438 5.199219 8.222656 5.199219 8 5.199219 7.777344 5.019531 7.601562 4.800781 7.601562L2.800781 7.601562C2.578125 7.601562 2.398438 7.777344 2.398438 8 2.398438 8.222656 2.578125 8.398438 2.800781 8.398438zM2.800781 12.800781L4.800781 12.800781C5.019531 12.800781 5.199219 12.621094 5.199219 12.398438 5.199219 12.179688 5.019531 12 4.800781 12L2.800781 12C2.578125 12 2.398438 12.179688 2.398438 12.398438 2.398438 12.621094 2.578125 12.800781 2.800781 12.800781zM4.800781 16.398438L2.800781 16.398438C2.578125 16.398438 2.398438 16.578125 2.398438 16.800781 2.398438 17.019531 2.578125 17.199219 2.800781 17.199219L4.800781 17.199219C5.019531 17.199219 5.199219 17.019531 5.199219 16.800781 5.199219 16.578125 5.019531 16.398438 4.800781 16.398438zM4.800781 16.398438"/>
</svg>

<svg xmlns="http://www.w3.org/2000/svg" width="32" height="32" viewBox="0 0 24 24">
    <path d="M2.8 1.2c-.882 0-1.6.718-1.6 1.6a1.6 1.6 0 1 0 1.6-1.6zm0 2.402A.802.802 0 0 1 2.8 2a.802.802 0 0 1 0 1.602zm0 0M6.398 1.2A1.6 1.6 0 1 0 8 2.801c0-.884-.719-1.603-1.602-1.603zm0 2.402a.799.799 0 0 1-.796-.801.799.799 0 1 1 1.597 0c0 .441-.36.8-.8.8zm0 0M10 1.2c-.883 0-1.602.718-1.602 1.6A1.6 1.6 0 0 0 10 4.399a1.6 1.6 0 0 0 1.602-1.597c0-.883-.72-1.602-1.602-1.602zm0 2.402A.802.802 0 0 1 10 2a.802.802 0 0 1 0 1.602zm0 0"/>
    <path d="M0 0v24h24V0zm.8.8h22.4v4H.8zm22.4 22.4H.8V5.601h22.4zm0 0"/>
    <path d="M16.398 7.602h-10V10.8h10zM15.602 10H7.199V8.398h8.403zm0 0M16.398 12h-10v3.2h10zm-.796 2.398H7.199v-1.597h8.403zm0 0M21.2 16.398H6.397V21.2H21.2zm-.802 4H7.2V17.2h13.2zm0 0M2.8 8.398h2a.398.398 0 1 0 0-.796h-2a.398.398 0 1 0 0 .796zm0 0M2.8 12.8h2a.401.401 0 0 0 0-.8h-2a.401.401 0 1 0 0 .8zm0 0M4.8 16.398h-2a.401.401 0 0 0 0 .8l2 .001a.4.4 0 0 0 0-.8zm0 0"/>
</svg>
